!!!!SEGMENT: Ser2003-In_te_Domine_speravi.krn
!!!id: Ser2003
!!!AGN: Motet
!!!SCT: Sherr (1990)
!!!voices: 4
!!!COM: Claudin de Sermisy
!!!OTL: In te Domine speravi
**kern	**kern	**kern	**kern
*part4	*part3	*part2	*part1
*staff4	*staff3	*staff2	*staff1
*I"Bass	*I"Tenor	*I"Altus	*I"Superius
*I'B	*I'T	*I'A	*I'S
*clefF4	*clefGv2	*clefG2	*clefG2
*k[b-]	*k[b-]	*k[b-]	*k[b-]
*F:	*F:	*F:	*F:
*M2/1	*M2/1	*M2/1	*M2/1
*met(C|)	*met(C|)	*met(C|)	*met(C|)
!!section: Prima pars: In te Domine speravi
!!!OMD: Prima pars: In te Domine speravi
=1	=1	=1	=1
0r	0r	0r	0a
=2	=2	=2	=2
0r	0r	0r	1a
.	.	.	[1b-y
=3	=3	=3	=3
0r	0r	0d	2b-]
.	.	.	2a
.	.	.	2.f
.	.	.	4g
=4	=4	=4	=4
0r	0r	1d	2a
.	.	.	2.b-y
.	.	[1e	.
.	.	.	4a
.	.	.	[2g
=5	=5	=5	=5
0r	0r	2e]	2g]
.	.	2d	2f
.	.	2B-y	1g
.	.	2c	.
=6	=6	=6	=6
0r	0r	2d	2r
.	.	2.e	2g
.	.	.	2g
.	.	4d	.
.	.	[2c	2g
=7	=7	=7	=7
0r	0r	2c]	1b-y
.	.	2B-y	.
.	.	1c	2a
.	.	.	[2g
=8	=8	=8	=8
0r	0r	2r	4g]
.	.	.	4f
.	.	2G	4e
.	.	.	4d
.	.	2G	2e
.	.	2G	[2d
=9	=9	=9	=9
0r	1r	1B-y	4d]
.	.	.	4e
.	.	.	4f
.	.	.	4g
.	2r	2A	2a
.	2G	4G	[2b-y
.	.	4A	.
=10	=10	=10	=10
0r	2G	4B-y	4b-]
.	.	4c	4a
.	2G	1d	2g
.	1B-y	.	2f
.	.	4c	2g
.	.	4B-y	.
=11	=11	=11	=11
0r	1A	1c	1e
.	2F	2A	[1d
.	[2G	[2B-y	.
=12	=12	=12	=12
2r	4G]	4B-]	1d]
.	4F	4A	.
2GG	2D	4G	.
.	.	4F	.
2GG	2E	1G	1r
2GG	[2D	.	.
=13	=13	=13	=13
1BB-y	4D]	1F	0r
.	4E	.	.
.	4F	.	.
.	4G	.	.
2AA	2A	2r	.
[2GG	[2B-y	2d	.
=14	=14	=14	=14
4GG]	4B-]	2d	0r
4AA	4A	.	.
4BB-y	2G	2d	.
4C	.	.	.
4D	1F	2.f	.
4E	.	.	.
4F	.	.	.
4G	.	8eL	.
.	.	8dJ	.
=15	=15	=15	=15
2A	0r	2c	2r
2.B-y	.	2d	2d
.	.	2G	2d
4A	.	.	.
[2G	.	2B-y	2d
=16	=16	=16	=16
2G]	0r	1A	1f
2F#i	.	.	.
1G	.	2G	2e
.	.	[2B-y	[2d
=17	=17	=17	=17
0r	0r	4B-]	4d]
.	.	4c	4e
.	.	4d	4f
.	.	4e	4g
.	.	1d	2a
.	.	.	[2b-y
=18	=18	=18	=18
0r	1.d	1G	4b-]
.	.	.	4a
.	.	.	2g
.	.	1r	2f
.	2d	.	[2a
=19	=19	=19	=19
1r	2c	0r	2a]
.	2B-y	.	2g
2r	2A	.	2a
[2G	[2d	.	[2b-y
=20	=20	=20	=20
2G]	2d]	0r	2b-]
2G	4c	.	2b-y
.	4B-y	.	.
2F	1c	.	2a
2E	.	.	2g
=21	=21	=21	=21
2D	1d	1r	2f
1G	.	.	1b-y
.	1r	2r	.
4F	.	[2c	4a
4E	.	.	4g
=22	=22	=22	=22
1F	0r	2c]	1a
.	.	2c	.
1G	.	2.B-y	1b-y
.	.	4A	.
=23	=23	=23	=23
1C	0r	2G	2r
.	.	1c	1g
1r	.	.	.
.	.	4B-y	2a
.	.	4A	.
=24	=24	=24	=24
0r	1r	1B-y	2f
.	.	.	2.g
.	2r	1c	.
.	.	.	4f
.	[2c	.	4e
.	.	.	4d
=25	=25	=25	=25
2r	2c]	0r	4e
.	.	.	4f
1G	2d	.	4g
.	.	.	4a
.	2B-y	.	2b-y
2A	[2c	.	[2a
=26	=26	=26	=26
2F	4c]	2r	4a]
.	4B-y	.	4g
2G	4A	2d	1g
.	4G	.	.
1D	1A	2d	.
.	.	2d	2f#i
=27	=27	=27	=27
1GG	1G	1B-y	[0g
1r	1r	2G	.
.	.	[2c	.
=28	=28	=28	=28
2r	0r	2c]	0g]
2G	.	2d	.
2G	.	1B-y	.
2G	.	.	.
=29	=29	=29	=29
1F	0r	0A	0r
2D	.	.	.
[2F	.	.	.
=30	=30	=30	=30
2F]	0r	2r	0r
2G	.	2B-y	.
1E-X	.	2B-y	.
.	.	2c	.
=31	=31	=31	=31
0D	0r	1d	0r
.	.	2.A	.
.	.	4B-y	.
=32	=32	=32	=32
2r	0r	2c	0r
2BB-y	.	1d	.
2BB-y	.	.	.
2C	.	2c	.
=33	=33	=33	=33
1D	0r	2B-y	0r
.	.	2A	.
2.AA	.	2.c	.
4BB-y	.	4B-y	.
=34	=34	=34	=34
2C	1r	4A	0r
.	.	4G	.
2.D	.	2.B-y	.
.	2r	.	.
4C	.	4A	.
2AA	2F	2A	.
=35	=35	=35	=35
1BB-y	2F	1d	0r
.	2G	.	.
1AA	1A	1c	.
=36	=36	=36	=36
0r	4D	2.A	2r
.	4E	.	.
.	4F	.	2f
.	4G	4B-y	.
.	2A	2c	2f
.	2B-y	2d	2g
=37	=37	=37	=37
0r	2c	2e	1a
.	2d	2.f	.
.	1B-y	.	2.d
.	.	4e	.
.	.	[2d	.
.	.	.	4e
=38	=38	=38	=38
0r	1A	2d]	4f
.	.	.	4g
.	.	2c	2a
.	1r	2.d	2f
.	.	.	[2b-y
.	.	4c	.
=39	=39	=39	=39
1r	0r	2A	4b-]
.	.	.	4a
.	.	2c	1a
1GG	.	1B-y	.
.	.	.	2g
=40	=40	=40	=40
1.D	0r	2A	0a
.	.	2.F	.
.	.	4G	.
2D	.	4A	.
.	.	4B-y	.
=41	=41	=41	=41
2C	0G	2c	0r
2BB-y	.	2.d	.
1E-i	.	.	.
.	.	8cL	.
.	.	8B-yJ	.
.	.	2c	.
=42	=42	=42	=42
2D	1.d	0F	0r
2.BB-y	.	.	.
4C	.	.	.
4D	2d	.	.
4E	.	.	.
=43	=43	=43	=43
2F	2c	0r	0r
2G	2B-y	.	.
2C	1e-i	.	.
[2G	.	.	.
=44	=44	=44	=44
4G]	1d	0r	0r
4F	.	.	.
2D	.	.	.
1E	2.G	.	.
.	4A	.	.
=45	=45	=45	=45
1D	4B-y	0r	0r
.	4c	.	.
.	2d	.	.
2r	2G	.	.
2F	[2d	.	.
=46	=46	=46	=46
2G	2d]	0r	0r
2A	2c	.	.
2B-y	1d	.	.
[2G	.	.	.
=47	=47	=47	=47
2G]	2r	1r	0r
2F	2A	.	.
2G	2B-y	2r	.
2E	2c	2G	.
=48	=48	=48	=48
1D	1d	2A	0r
.	.	2B-y	.
1C	2.G	1c	.
.	4A	.	.
=49	=49	=49	=49
0r	2B-y	2G	0r
.	1A	2.c	.
.	.	4A	.
.	4G	[2d	.
.	4F	.	.
=50	=50	=50	=50
0r	1E	2d]	1g
.	.	2c#i	.
.	1D	1d	1a
=51	=51	=51	=51
0r	1G	2r	1b-y
.	.	2d	.
.	1r	2e	1cc
.	.	2f	.
=52	=52	=52	=52
0r	0r	2g	1b-y
.	.	2d	.
.	.	2e	2g
.	.	[2f	[2a
=53	=53	=53	=53
2r	0r	4f]	4a]
.	.	4e	4f
2D	.	2d	1b-y
2E	.	1c	.
2F	.	.	2a
=54	=54	=54	=54
1G	2r	1B-y	1b-y
.	2G	.	.
1D	2A	1r	1r
.	2B-y	.	.
=55	=55	=55	=55
2E	2c	0r	0r
2.F	2.d	.	.
4E	4c	.	.
2D	[2B-y	.	.
=56	=56	=56	=56
1C	2B-]	1r	0r
.	2A	.	.
[1BB-y	[1B-y	[1d	.
=57	=57	=57	=57
1BB-]	2B-]	1d]	1f
.	4c	.	.
.	4d	.	.
1r	2e-i	1c	[1g
.	2e-i	.	.
=58	=58	=58	=58
0r	1d	1B-y	2g]
.	.	.	2g
.	1D	2A	1a
.	.	[2d	.
=59	=59	=59	=59
0r	0r	2d]	2f
.	.	2c	2.a
.	.	2.d	.
.	.	.	4g
.	.	.	4f
.	.	4c	4e
=60	=60	=60	=60
0r	0r	4B-y	2d
.	.	4A	.
.	.	1c	2.a
.	.	.	4g
.	.	[2B-y	[2g
=61	=61	=61	=61
0D	1r	2B-]	2g]
.	.	4A	4f
.	.	4G	4e
.	1F	2A	1f
.	.	2B-y	.
=62	=62	=62	=62
1C	1G	1c	1e
1BB-y	1G	1r	1d
=63	=63	=63	=63
2AA	1A	0r	0r
1D	.	.	.
.	2F	.	.
2C	[2A	.	.
=64	=64	=64	=64
2.D	4A]	0r	1r
.	4G	.	.
.	4F	.	.
4E	4E	.	.
2F	2D	.	[1dd
2G	[2B-y	.	.
=65	=65	=65	=65
2D	2B-]	0r	1dd]
2.G	4A	.	.
.	4G	.	.
.	1A	.	1cc
8FL	.	.	.
8EJ	.	.	.
2F	.	.	.
=66	=66	=66	=66
1G	1G	0d	1b-y
1D	1r	.	[1a
=67	=67	=67	=67
0r	1r	1c	1a]
.	[1d	1B-y	1g
=68	=68	=68	=68
0r	1d]	0A	2f
.	.	.	4e
.	.	.	4d
.	1c	.	1e
=69	=69	=69	=69
0G	1B-y	1r	0d
.	[1A	2r	.
.	.	[2d	.
=70	=70	=70	=70
1F	1A]	2d]	1r
.	.	4c	.
.	.	4B-y	.
1E	2.G	1c	1g
.	4A	.	.
=71	=71	=71	=71
2.D	4B-y	2d	2.f
.	4c	.	.
.	2d	1f	.
4E	.	.	4g
2F	2c	.	2a
2G	2B-y	4e	2b-y
.	.	4d	.
=72	=72	=72	=72
2C	4c	2e	4a
.	4B-y	.	4g
2E	4A	2c	1g
.	4G	.	.
1D	1A	1d	.
.	.	.	2f#i
=	=	=	=
00GG	00G	00d	00g
=||	=||	=||	=||
*M2/1	*M2/1	*M2/1	*M2/1
*met(C|)	*met(C|)	*met(C|)	*met(C|)
!!section: Secunda pars: Quoniam fortitudo mea
!!!OMD: Secunda pars: Quoniam fortitudo mea
!	!	!	!LO:TX:a:t=Secunda pars&colon; Quoniam fortitudo mea
0r	0r	1.d	0r
.	.	2d	.
=73	=73	=73	=73
0r	0r	2d	0r
.	.	2A	.
.	.	1c	.
=74	=74	=74	=74
1.D	0r	1B-y	0r
.	.	2.A	.
2D	.	.	.
.	.	4G	.
=75	=75	=75	=75
2D	0r	4A	0r
.	.	4B-y	.
2AA	.	2.c	.
1C	.	.	.
.	.	4B-y	.
.	.	[2A	.
=76	=76	=76	=76
1BB-y	0r	2A]	0r
.	.	2G	.
1AA	.	4A	.
.	.	4B-y	.
.	.	4c	.
.	.	4A	.
=77	=77	=77	=77
1GG	1.d	2.B-y	0r
.	.	8AL	.
.	.	8GJ	.
1D	.	2F	.
.	2d	[2f	.
=78	=78	=78	=78
0r	2d	2f]	1r
.	2A	4e	.
.	.	4d	.
.	1c	1e	[1g
=79	=79	=79	=79
2r	0B-y	0d	2g]
2G	.	.	2g
2G	.	.	2g
2G	.	.	2d
=80	=80	=80	=80
2F	2.A	0r	1f
2D	.	.	.
.	4B-y	.	.
1A	4c	.	1e
.	4d	.	.
.	2c	.	.
=81	=81	=81	=81
2.D	2B-y	2r	4d
.	.	.	4e
.	1A	2d	4f
4E	.	.	4g
2F	.	2d	2a
[2G	2G	2d	[2b-y
=82	=82	=82	=82
2G]	1A	2c	2b-]
2F#i	.	2A	1a
1G	2r	1B-y	.
.	2d	.	2g
=83	=83	=83	=83
1D	2d	0A	2.a
.	2d	.	.
.	.	.	4b-y
1r	2c	.	1cc
.	2A	.	.
=84	=84	=84	=84
0r	2.B-y	2.d	2r
.	.	.	2b-y
.	4A	4c	.
.	4G	4B-y	2b-y
.	4F	4A	.
.	2G	2B-y	2b-y
=85	=85	=85	=85
0r	2F	2c	2a
.	2D	1d	2f
.	1E	.	1g
.	.	2c#i	.
=86	=86	=86	=86
2r	1D	0d	2f
2D	.	.	2.a
2D	2r	.	.
.	.	.	4g
2D	2F	.	2f
=87	=87	=87	=87
2C	2G	0r	1e
2AA	2A	.	.
1BB-y	2F	.	[1d
.	[2B-y	.	.
=88	=88	=88	=88
1GG	2B-]	1r	0d]
.	4A	.	.
.	4G	.	.
1D	2A	2r	.
.	2B-y	2d	.
=89	=89	=89	=89
0r	2c	2e	2r
.	2d	2f	2a
.	1B-y	2d	1b-y
.	.	[2f	.
=90	=90	=90	=90
0r	0A	2f]	1cc
.	.	4e	.
.	.	4d	.
.	.	1e	1a
=91	=91	=91	=91
1r	0r	2d	2a
.	.	2A	1cc
1F	.	2A	.
.	.	2A	4b-y
.	.	.	4a
=92	=92	=92	=92
1G	1r	1d	1b-y
1A	2r	1c	[1a
.	2A	.	.
=93	=93	=93	=93
1F	2A	2c	1a]
.	2A	2c	.
2r	[1d	[1f	2r
2D	.	.	2a
=94	=94	=94	=94
2D	1d]	1f]	2a
2D	.	.	2a
1G	1B-y	1d	1b-y
=95	=95	=95	=95
2.C	1.c	1.e	2r
.	.	.	2g
4D	.	.	.
4E	.	.	2g
4F	.	.	.
2G	2B-y	2e	2g
=96	=96	=96	=96
2F	2A	2f	2.cc
2C	2G	2e	.
.	.	.	4b-y
2D	2F	2f	2a
2E	2G	2c	[2g
=97	=97	=97	=97
1D	1A	1d	2g]
.	.	.	2f#i
1GG	[1G	1B-y	[1g
=98	=98	=98	=98
1r	0G]	0B-y	0g_
[1GG	.	.	.
=99	=99	=99	=99
1GG]	1r	1B-y	1g]
1C	[1G	1c	1r
=100	=100	=100	=100
1BB-y	1G]	1d	0r
1AA	1c	1e	.
=101	=101	=101	=101
0D	1B-y	1.f	0r
.	[1A	.	.
.	.	4e	.
.	.	4d	.
=102	=102	=102	=102
1F	1A]	2c	0r
.	.	1d	.
1E	1G	.	.
.	.	2c	.
=103	=103	=103	=103
2D	1.B-y	0d	0r
1G	.	.	.
4F	4A	.	.
4E	4G	.	.
=104	=104	=104	=104
1F	1A	2r	0r
.	.	2d	.
1G	2G	2d	.
.	[2d	2d	.
=105	=105	=105	=105
2r	2d]	1f	0r
2A	4c	.	.
.	4B-y	.	.
2A	1c	1e	.
2A	.	.	.
=106	=106	=106	=106
1B-y	1d	2d	0r
.	.	2.g	.
2G	2r	.	.
.	.	4f	.
[2A	2c	4e	.
.	.	4d	.
=107	=107	=107	=107
4A]	2c	4c	0r
4G	.	4B-y	.
4F	2c	4A	.
4E	.	4G	.
2F	1d	2A	.
[2G	.	[2B-y	.
=108	=108	=108	=108
4G]	2B-y	4B-]	0r
4F	.	4A	.
4E	2.c	4G	.
4D	.	4F	.
1E	.	4G	.
.	4B-y	4A	.
.	2G	4B-y	.
.	.	4c	.
=109	=109	=109	=109
0D	[0A	4d	2r
.	.	4e	.
.	.	1f	2a
.	.	.	2a
.	.	4e	2a
.	.	4d	.
=110	=110	=110	=110
1r	1A]	1c	1cc
2r	1r	1d	1b-y
2D	.	.	.
=111	=111	=111	=111
2D	2r	2r	0a
2D	1A	1d	.
1F	.	.	.
.	2A	2d	.
=112	=112	=112	=112
1E	1c	1e	1g
[1D	[1d	1f	2r
.	.	.	[2a
=113	=113	=113	=113
1D]	1d]	2d	2a]
.	.	1f	2a
1r	[1c	.	1a
.	.	4e	.
.	.	4d	.
=114	=114	=114	=114
0r	1c]	1e	1g
.	1r	1d	1f
=115	=115	=115	=115
0r	0B-y	0G	2r
.	.	.	2d
.	.	.	2d
.	.	.	2d
=116	=116	=116	=116
2r	0A	1c	1f
2AA	.	.	.
2AA	.	[1c	[1e
2AA	.	.	.
=117	=117	=117	=117
1C	1.G	2c]	1e]
.	.	2c	.
1BB-y	.	2d	[1d
.	2D	2G	.
=118	=118	=118	=118
0AA	2.F	[0A	1d]
.	4G	.	.
.	1E	.	1c
=119	=119	=119	=119
0D	0D	0A]	0d
=120	=120	=120	=120
0D	0A	0d	0f
=121	=121	=121	=121
1D	1B-y	1d	1f
1D	1A	1d	1f
=122	=122	=122	=122
0C	0c	0e	0g
=123	=123	=123	=123
0F	0c	0f	0a
=124	=124	=124	=124
1.G	1.B-y	1.d	1.b-y
2G	2B-y	2e	2b-y
=125	=125	=125	=125
0F	0c	0f	0a
=126	=126	=126	=126
1r	1r	1r	1r
1BB-y	1d	1f	1b-y
=127	=127	=127	=127
1BB-y	1d	1f	1b-y
1BB-y	1d	1f	1b-y
=128	=128	=128	=128
1.F	1.c	1.f	1.a
2C	2c	2e	2g
=129	=129	=129	=129
1D	1A	1d	1f
1AA	1A	1c	1e
=130	=130	=130	=130
0BB-y	1F	0B-y	[0d
.	2r	.	.
.	2D	.	.
=131	=131	=131	=131
2r	2D	2r	1d]
2GG	2D	2B-y	.
2GG	1G	2B-y	2r
2GG	.	2B-y	2g
=132	=132	=132	=132
1C	1E	1c	2g
.	.	.	2g
1GG	1D	1B-y	1b-y
=133	=133	=133	=133
0D	2.F	1r	1a
.	4G	.	.
.	1A	1d	[1f
=134	=134	=134	=134
1BB-y	2r	2d	2f]
.	2D	2d	2g
1AA	2E	1c	1a
.	2F	.	.
=135	=135	=135	=135
2r	2.G	1.B-y	1b-y
2.GG	.	.	.
.	4A	.	.
.	4B-y	.	2b-y
4AA	4c	.	.
4BB-y	[2d	4A	2b-y
4C	.	4G	.
=136	=136	=136	=136
2.D	2d]	2F	2.a
.	4c	2.f	.
4E	4B-y	.	4g
2F	2A	.	2a
.	.	4e	.
[2G	2G	2d	[2b-y
=137	=137	=137	=137
2G]	2B-y	1e	4b-]
.	.	.	4a
2C	2c	.	1g
1D	1A	[1d	.
.	.	.	2f#i
=138	=138	=138	=138
0GG	1G	2d]	0g
.	.	2B-y	.
.	2r	1B-y	.
.	2D	.	.
=139	=139	=139	=139
2r	2D	2r	1r
2GG	2D	2B-y	.
2GG	2.G	2B-y	2r
2GG	.	2B-y	2g
.	4F	.	.
=140	=140	=140	=140
1C	4E	1c	2g
.	4D	.	.
.	2E	.	2g
1GG	1D	1B-y	1b-y
=141	=141	=141	=141
0D	2.F	1r	1a
.	4G	.	.
.	1A	1d	[1f
=142	=142	=142	=142
1BB-y	2r	2d	2f]
.	2D	2d	2g
1AA	2E	1c	1a
.	2F	.	.
=143	=143	=143	=143
2r	2.G	1.B-y	1b-y
2.GG	.	.	.
.	4A	.	.
.	4B-y	.	2b-y
4AA	4c	.	.
4BB-y	[2d	4A	2b-y
4C	.	4G	.
=144	=144	=144	=144
2.D	2d]	2F	2.a
.	4c	2.f	.
4E	4B-y	.	4g
2F	2A	.	2a
.	.	4e	.
[2G	2G	2d	[2b-y
=145	=145	=145	=145
2G]	2B-y	1e	4b-]
.	.	.	4a
2C	2c	.	1g
1D	1A	1d	.
.	.	.	2f#i
=146	=146	=146	=146
00GGl	00Gl	00dl	00gl
==	==	==	==
*-	*-	*-	*-
!!!system-decoration: [*]
!!!RDF**kern: i = editorial accidental
!!!RDF**kern: l = terminal long
!!!ENC: Benjamin Ory
!!!END: 2021/5/13
!!!EED: Benjamin Ory
!!!EEV: 2021/05/13
!!!YEC: Copyright 2021 Benjamin Ory, All Rights Reserved
!!!ONB: Translated from MusicXML on 2021/05/13
